src/img/coffee-cup.svg

<svg width="24" height="24" viewBox="0 0 24 24" fill="none" xmlns="http://www.w3.org/2000/svg">
<g clip-path="url(#clip0)">
<path d="M19.8698 10.7616H18.8664V8.73874H2.31445V12.6272C2.31445 17.1905 6.02704 20.9031 10.5904 20.9031C13.498 20.9031 16.0599 19.3957 17.5364 17.1215H19.8697C21.6231 17.1215 23.0497 15.6949 23.0497 13.9415C23.0497 12.1882 21.6232 10.7616 19.8698 10.7616ZM19.8698 15.5562H18.3304C18.6763 14.6452 18.8664 13.658 18.8664 12.6272V12.3268H19.8698C20.7601 12.3268 21.4845 13.0511 21.4845 13.9415C21.4845 14.8319 20.7601 15.5562 19.8698 15.5562Z" fill="#F3084E"/>
<path d="M20.231 22.4348H0.950195V24H20.231V22.4348Z" fill="#F3084E"/>
<path d="M13.9402 4.07315C13.9402 3.78407 14.0017 3.68334 14.1365 3.4627C14.3161 3.16856 14.5621 2.76571 14.5621 2.03643C14.5621 1.3072 14.3161 0.904405 14.1364 0.610264C14.0017 0.389671 13.9402 0.288984 13.9402 0H12.375C12.375 0.729233 12.621 1.13208 12.8007 1.42617C12.9355 1.64676 12.9969 1.7474 12.9969 2.03639C12.9969 2.32546 12.9354 2.4262 12.8007 2.64684C12.621 2.94112 12.375 3.34392 12.375 4.07324C12.375 4.80252 12.621 5.20537 12.8007 5.49946C12.9354 5.7201 12.9969 5.82079 12.9969 6.10991H14.5621C14.5621 5.38063 14.3161 4.97779 14.1365 4.68365C14.0017 4.46296 13.9402 4.36227 13.9402 4.07315Z" fill="#F3084E"/>
<path d="M8.18434 4.07315C8.18434 3.78407 8.24584 3.68334 8.38061 3.4627C8.56023 3.16856 8.80628 2.76571 8.80628 2.03643C8.80628 1.3072 8.56023 0.904405 8.38056 0.610264C8.2458 0.389671 8.18434 0.288984 8.18434 0H6.61914C6.61914 0.729233 6.86519 1.13208 7.04486 1.42617C7.17962 1.64676 7.24108 1.7474 7.24108 2.03639C7.24108 2.32546 7.17958 2.4262 7.04481 2.64684C6.86519 2.94112 6.61914 3.34392 6.61914 4.07324C6.61914 4.80252 6.86519 5.20537 7.04481 5.49946C7.17958 5.7201 7.24108 5.82079 7.24108 6.10991H8.80628C8.80628 5.38063 8.56023 4.97779 8.38061 4.68365C8.24584 4.46296 8.18434 4.36227 8.18434 4.07315Z" fill="#F3084E"/>
</g>
<defs>
<clipPath id="clip0">
<rect width="24" height="24" fill="white"/>
</clipPath>
</defs>
</svg>

<svg width="24" height="24" fill="none" xmlns="http://www.w3.org/2000/svg"><g clip-path="url(#clip0)" fill="#F3084E"><path d="M19.87 10.762h-1.004V8.739H2.314v3.888c0 4.563 3.713 8.276 8.276 8.276a8.276 8.276 0 0 0 6.946-3.781h2.334a3.184 3.184 0 0 0 3.18-3.18 3.184 3.184 0 0 0-3.18-3.18zm0 4.794h-1.54a8.235 8.235 0 0 0 .536-2.929v-.3h1.004c.89 0 1.614.724 1.614 1.614 0 .89-.724 1.615-1.614 1.615zM20.231 22.435H.951V24h19.28v-1.565zM13.94 4.073c0-.289.062-.39.197-.61.18-.294.425-.697.425-1.427 0-.729-.246-1.132-.426-1.426C14.002.39 13.94.29 13.94 0h-1.565c0 .73.246 1.132.426 1.426.134.22.196.321.196.61 0 .29-.062.39-.196.61-.18.295-.426.698-.426 1.427 0 .73.246 1.132.426 1.426.134.221.196.322.196.61h1.565c0-.728-.246-1.131-.425-1.425-.135-.221-.197-.322-.197-.61zM8.184 4.073c0-.289.062-.39.197-.61.18-.294.425-.697.425-1.427 0-.729-.246-1.132-.425-1.426C8.246.39 8.184.29 8.184 0H6.62c0 .73.246 1.132.426 1.426.135.22.196.321.196.61 0 .29-.061.39-.196.61-.18.295-.426.698-.426 1.427 0 .73.246 1.132.426 1.426.135.221.196.322.196.61h1.565c0-.728-.246-1.131-.425-1.425-.135-.221-.197-.322-.197-.61z"/></g><defs><clipPath id="clip0"><path fill="#fff" d="M0 0h24v24H0z"/></clipPath></defs></svg>
